content/images/project/skywalking-agent-test-tool.svg

<svg width="36" height="36" viewBox="0 0 36 36" fill="none" xmlns="http://www.w3.org/2000/svg">
<path d="M0 4C0 1.79086 1.79086 0 4 0H32C34.2091 0 36 1.79086 36 4V32C36 34.2091 34.2091 36 32 36H4C1.79086 36 0 34.2091 0 32V4Z" fill="#3987CD"/>
<path fill-rule="evenodd" clip-rule="evenodd" d="M14.2429 9.43402C13.3694 10.0398 12.6557 10.8484 12.163 11.7904C11.6704 12.7324 11.4134 13.7798 11.4141 14.8429C11.4141 17.1814 12.6317 19.2361 14.4727 20.4068C15.2308 20.8868 15.8322 21.7576 15.7927 22.8068V22.8185L15.5527 27.702C15.5481 27.8477 15.5146 27.9909 15.454 28.1235C15.3935 28.256 15.3072 28.3752 15.2001 28.474C15.093 28.5729 14.9673 28.6494 14.8303 28.6991C14.6933 28.7489 14.5478 28.7708 14.4023 28.7637C14.2567 28.7566 14.114 28.7206 13.9825 28.6578C13.851 28.595 13.7334 28.5066 13.6364 28.3978C13.5394 28.2891 13.4651 28.1621 13.4177 28.0243C13.3704 27.8864 13.3509 27.7406 13.3605 27.5952L13.599 22.722C13.602 22.5976 13.5259 22.4059 13.2961 22.2595C12.0463 21.4673 11.0171 20.3719 10.3043 19.0752C9.59143 17.7785 9.2181 16.3226 9.219 14.8429C9.21845 13.4288 9.55977 12.0356 10.2139 10.7819C10.868 9.52821 11.8155 8.45125 12.9756 7.64278C13.3303 7.3875 13.7538 7.24532 14.1907 7.23487C14.6276 7.22443 15.0574 7.3462 15.4239 7.58425C16.1 8.01742 16.5361 8.7945 16.5361 9.66671V13.7936C16.5361 13.9136 16.5961 14.0277 16.6971 14.095L17.7947 14.8414C17.8552 14.8823 17.9265 14.9041 17.9996 14.9041C18.0726 14.9041 18.1439 14.8823 18.2044 14.8414L19.302 14.095C19.3516 14.0616 19.3921 14.0164 19.4202 13.9636C19.4483 13.9108 19.463 13.8519 19.463 13.7921V9.66671C19.463 8.7945 19.8991 8.01742 20.5752 7.58425C20.9417 7.3462 21.3715 7.22443 21.8084 7.23487C22.2453 7.24532 22.6688 7.3875 23.0235 7.64278C24.1837 8.45125 25.1312 9.52821 25.7853 10.7819C26.4394 12.0356 26.7807 13.4288 26.7801 14.8429C26.781 16.3226 26.4077 17.7785 25.6949 19.0752C24.982 20.3719 23.9528 21.4673 22.703 22.2595C22.4733 22.4059 22.3972 22.5961 22.4001 22.7205L22.6386 27.5937C22.648 27.7389 22.6284 27.8846 22.581 28.0222C22.5336 28.1598 22.4593 28.2866 22.3624 28.3952C22.2655 28.5038 22.148 28.592 22.0167 28.6548C21.8854 28.7176 21.7429 28.7536 21.5975 28.7608C21.4521 28.7679 21.3068 28.7461 21.1699 28.6966C21.0331 28.6471 20.9074 28.5709 20.8003 28.4723C20.6932 28.3738 20.6068 28.255 20.546 28.1227C20.4852 27.9905 20.4514 27.8475 20.4464 27.702L20.2064 22.8068C20.1669 21.7576 20.7684 20.8868 21.5264 20.4068C22.4642 19.8127 23.2365 18.991 23.7713 18.0182C24.306 17.0453 24.586 15.953 24.585 14.8429C24.5857 13.7798 24.3288 12.7324 23.8361 11.7904C23.3434 10.8484 22.6297 10.0398 21.7562 9.43402C21.7211 9.4589 21.6581 9.53207 21.6581 9.66817V13.7921C21.6582 14.2101 21.5559 14.6218 21.3603 14.9911C21.1646 15.3605 20.8815 15.6764 20.5357 15.9112L19.4381 16.6575C19.0137 16.9457 18.5126 17.0997 17.9996 17.0997C17.4866 17.0997 16.9854 16.9457 16.561 16.6575L15.4634 15.9112C15.1176 15.6764 14.8345 15.3605 14.6389 14.9911C14.4432 14.6218 14.341 14.2101 14.341 13.7921V9.66671C14.341 9.53207 14.2781 9.4589 14.2429 9.43402V9.43402Z" fill="white"/>
</svg>

<svg xmlns="http://www.w3.org/2000/svg" width="36" height="36" fill="none" viewBox="0 0 36 36"><path fill="#3987CD" d="M0 4a4 4 0 0 1 4-4h28a4 4 0 0 1 4 4v28a4 4 0 0 1-4 4H4a4 4 0 0 1-4-4V4Z"/><path fill="#fff" fill-rule="evenodd" d="M14.243 9.434a6.577 6.577 0 0 0-2.829 5.409 6.582 6.582 0 0 0 3.059 5.564c.758.48 1.36 1.35 1.32 2.4v.012l-.24 4.883a1.097 1.097 0 1 1-2.193-.107l.239-4.873c.003-.124-.073-.316-.303-.463a8.775 8.775 0 0 1-4.077-7.416 8.772 8.772 0 0 1 3.757-7.2 2.169 2.169 0 0 1 2.448-.059 2.463 2.463 0 0 1 1.112 2.083v4.127c0 .12.06.234.161.301l1.098.746a.366.366 0 0 0 .41 0l1.097-.746a.365.365 0 0 0 .161-.303V9.667c0-.873.436-1.65 1.112-2.083a2.169 2.169 0 0 1 2.448.059 8.771 8.771 0 0 1 3.757 7.2 8.775 8.775 0 0 1-4.077 7.416c-.23.147-.306.337-.303.462l.239 4.873a1.098 1.098 0 1 1-2.193.108l-.24-4.895c-.04-1.05.562-1.92 1.32-2.4a6.58 6.58 0 0 0 3.059-5.564 6.577 6.577 0 0 0-2.829-5.409c-.035.025-.098.098-.098.234v4.124a2.56 2.56 0 0 1-1.122 2.12l-1.098.745a2.56 2.56 0 0 1-2.877 0l-1.098-.746a2.56 2.56 0 0 1-1.122-2.119V9.667c0-.135-.063-.208-.098-.233Z" clip-rule="evenodd"/></svg>
